X:1
T:Always Enough
T:Always Enough
T:S. L. Merritt
T:William I. Dale, circa 1914
T:Public Domain Courtesy of the Cyber Hymnal™
C:S. L. Merritt
Z:Public Domain
Z:Courtesy of the Cyber Hymnal™
%%score ( 1 2 ) ( 3 4 )
L:1/8
Q:1/4=108
M:2/4
K:D
V:1 treble 
V:2 treble 
V:3 bass 
V:4 bass 
V:1
 (3[DF][DF][DF] [DF]>[CE] | [DF]>[EG] [FA]>[FA] | [GB]>[GB] [Bd]>[GB] | [FA]2 z2 | %4
w: 1.~Al- ways e- nough of|grace is giv’n to|me from day to|day,|
w: 2.~Al- ways e- nough of|com- fort to con-|sole me when I’m|sad,|
w: 3.~Al- ways e- nough of|Je- sus’ love to|fill me with de-|light,|
w: 4.~Al- ways e- nough of|joy to make my|heart re- joice and|sing,|
 (3[EG][EG][EG] [DF]>[CE] | [DF]>[EG] [FA]>[Fd] | [Ec]>[Ec] [Ed]>[DB] | [CA]2 z2 || %8
w: Al- ways e- nough of|grace to help me|on the up- ward|way.|
w: Al- ways e- nough of|peace in time of|storm to make me|glad.|
w: Al- ways e- nough of|hope to keep faith’s|al- tar burn- ing|bright.|
w: Al- ways e- nough of|plea- sure in the|ser- vice of my|king.|
"^Refrain" (3[FA][FA][FA] [FA]>[FA] | d4 | (3[GB][GB][GB] [GB]>[GB] | e2- [=Ge]>[Bd] | %12
w: ||||
w: Al- ways e- nough for|me|(for me), Al- ways e-|nough for me|
w: ||||
w: ||||
 [Ac]>[Ac] [GB]>[Gc] | [Fd]>[Fd] [DA]>[DG] | (3[DF][DF][DF] [DF]>[CE] x | D4 |] %16
w: ||||
w: (for me), This is|my song, the whole|day long, There’s al- ways|enough|
w: ||||
w: ||||
V:2
 x4 | x4 | x4 | x4 | x4 | x4 | x4 | x4 || x4 | F>F F2 | x4 | ^G3/2 G/ x2 | x4 | x4 | x5 | D4 |] %16
V:3
 (3[D,A,][D,A,][D,A,] [D,A,]>[A,,A,] | [D,A,]>[D,A,] [D,D]>[D,D] | [G,D]>[G,D] [G,D]>[G,D] | %3
 [D,D]2 z2 | (3[A,,A,][A,,A,][A,,A,] [A,,A,]>[A,,A,] | [D,A,]>[D,A,] [D,A,]>[D,A,] | %6
 [E,A,]>[E,A,] [E,^G,]>[E,G,] | [A,,A,]2 z2 || (3[D,A,][D,A,][D,A,] [D,D]>[D,D] | %9
 ([D,D]>[D,D] [D,D]2) | (3[G,D][G,D][G,D] [G,D]>[G,D] | ([E,E]>[E,E] [E,E]>[E,E]) | %12
 [A,E]>[A,E] [A,E]>[A,E] | [D,D]>[D,A,] [F,A,]>[G,B,] | A,A, A,[A,,A,]>[A,,G,] | [D,F,]4 |] %16
V:4
 x4 | x4 | x4 | x4 | x4 | x4 | x4 | x4 || x4 | x4 | x4 | x4 | x4 | x4 | (3A,A,A, x3 | x4 |] %16

